usr/share/icons/biglinux-icons-material/scalable/apps/passwordsafe.svg

<?xml version="1.0" encoding="UTF-8" standalone="no"?>
<svg
   width="24"
   height="24"
   viewBox="0 0 6.349875 6.349875"
   version="1.1"
   id="svg2"
   sodipodi:docname="security-medium.svg"
   inkscape:version="1.3 (0e150ed6c4, 2023-07-21)"
   xmlns:inkscape="http://www.inkscape.org/namespaces/inkscape"
   xmlns:sodipodi="http://sodipodi.sourceforge.net/DTD/sodipodi-0.dtd"
   xmlns="http://www.w3.org/2000/svg"
   xmlns:svg="http://www.w3.org/2000/svg">
  <defs
     id="defs2">
    <radialGradient
       fx="0"
       fy="0"
       cx="0"
       cy="0"
       r="1"
       gradientUnits="userSpaceOnUse"
       gradientTransform="matrix(0,2.9103621,-2.9103621,0,3.1748163,0.26456958)"
       spreadMethod="pad"
       id="radialGradient22399-5">
      <stop
         style="stop-color:#cbeacd;stop-opacity:0.93725491;"
         offset="0"
         id="stop22395-4" />
      <stop
         style="stop-color:#7ed284;stop-opacity:1;"
         offset="1"
         id="stop22397-7" />
    </radialGradient>
    <linearGradient
       x1="12"
       y1="2.9583299"
       x2="12"
       y2="21.0417"
       gradientUnits="userSpaceOnUse"
       gradientTransform="matrix(0,-0.08333337,-0.08333337,0,1.9999976,1.0000001)"
       spreadMethod="pad"
       id="linearGradient22411">
      <stop
         style="stop-opacity:1;stop-color:#ffffff"
         offset="0"
         id="stop22407" />
      <stop
         style="stop-opacity:1;stop-color:#d8d8d8"
         offset="1"
         id="stop22409" />
    </linearGradient>
    <linearGradient
       x1="12"
       y1="2.9583299"
       x2="12"
       y2="21.0417"
       gradientUnits="userSpaceOnUse"
       gradientTransform="matrix(0,0.08333337,-0.08333337,0,1.9999976,17)"
       spreadMethod="pad"
       id="linearGradient22417">
      <stop
         style="stop-opacity:1;stop-color:#accd96"
         offset="0"
         id="stop22413" />
      <stop
         style="stop-opacity:1;stop-color:#5a6a4d"
         offset="1"
         id="stop22415" />
    </linearGradient>
  </defs>
  <sodipodi:namedview
     id="namedview2"
     pagecolor="#ffffff"
     bordercolor="#000000"
     borderopacity="0.25"
     inkscape:showpageshadow="2"
     inkscape:pageopacity="0.0"
     inkscape:pagecheckerboard="0"
     inkscape:deskcolor="#d1d1d1"
     inkscape:zoom="3.1679688"
     inkscape:cx="-40.562269"
     inkscape:cy="39.29963"
     inkscape:window-width="2560"
     inkscape:window-height="998"
     inkscape:window-x="0"
     inkscape:window-y="0"
     inkscape:window-maximized="1"
     inkscape:current-layer="svg2" />
  <path
     d="m 2.5380664,0.29490716 c 0.031749,0 0.062088,-0.004233 0.091015,-0.012347 0.3802869,-0.0250467 0.7605739,-0.0236356 1.1398025,0.002822 0.3443043,0.0275161 0.6776728,0.10195077 1.0004581,0.22436224 0.5358587,0.22048195 0.9023876,0.6035911 1.1009976,1.1479164 0.1114756,0.3280769 0.1788548,0.6656786 0.1996683,1.011394 0.027516,0.4356719 0.017991,0.8695801 -0.030338,1.3038409 C 6.0026286,4.2773369 5.9239608,4.5694312 5.8026076,4.8505895 5.5778926,5.3384716 5.2127748,5.6746622 4.7086653,5.8591613 4.3005094,5.9970947 3.8803594,6.0701183 3.4475096,6.0771737 2.9624497,6.1032787 2.4816231,6.065885 2.0050297,5.9681675 1.1298053,5.7737908 0.5883021,5.239343 0.38440056,4.3655297 0.29761894,3.9728957 0.25740307,3.5746175 0.26586957,3.172106 0.25634476,2.7434894 0.30149942,2.3219283 0.40239188,1.9056587 0.61722931,1.0900526 1.1354496,0.58417923 1.9567001,0.3887442 2.1482547,0.34182568 2.3426314,0.31007631 2.5380664,0.29490716 Z"
     style="fill:url(#radialGradient22399-5);fill-rule:evenodd;stroke:none;stroke-width:0.352771"
     id="path22401-2" />
  <path
     d="m 3.1749347,1.0583125 c -0.039087,0 -0.070554,0.031468 -0.070554,0.070554 v 0.072106 A 1.6227456,1.6227456 0 0 0 1.5521894,2.8221664 h 1.5521911 v 1.9755164 c 0,0.012698 0.00423,0.023988 0.010094,0.034218 a 0.56273997,0.56273997 0 0 0 0.5543438,0.4596605 c 0.3126962,0 0.5644333,-0.2517372 0.5644333,-0.5644333 V 4.5154657 c 0,-0.039086 -0.031468,-0.070554 -0.070554,-0.070554 -0.039086,0 -0.070554,0.031468 -0.070554,0.070554 v 0.2116625 c 0,0.234522 -0.1888028,0.4233249 -0.4233249,0.4233249 -0.2345217,0 -0.4233247,-0.1888029 -0.4233247,-0.4233249 V 2.8222369 H 4.7976855 A 1.6227456,1.6227456 0 0 0 3.2454904,1.2008319 v -0.071965 c 0,-0.039086 -0.031468,-0.070554 -0.070554,-0.070554 z"
     fill="#f9f9f9"
     opacity="0.9"
     style="stroke-width:0.264579;paint-order:stroke fill markers"
     id="path3" />
</svg>

<svg xmlns="http://www.w3.org/2000/svg" width="24" height="24" viewBox="0 0 6.35 6.35"><defs><radialGradient id="a" cx="0" cy="0" r="1" fx="0" fy="0" gradientTransform="rotate(90 1.455 1.72) scale(2.91036)" gradientUnits="userSpaceOnUse" spreadMethod="pad"><stop offset="0" style="stop-color:#cbeacd;stop-opacity:.93725491"/><stop offset="1" style="stop-color:#7ed284;stop-opacity:1"/></radialGradient></defs><path d="M2.538.295A.335.335 0 0 0 2.63.283c.38-.025.76-.024 1.14.002a3.62 3.62 0 0 1 1 .225c.536.22.903.603 1.101 1.148.112.328.18.665.2 1.011.028.436.018.87-.03 1.304a3.166 3.166 0 0 1-.237.878c-.225.487-.59.824-1.094 1.008a4.125 4.125 0 0 1-1.261.218 5.644 5.644 0 0 1-1.443-.109C1.13 5.774.588 5.24.385 4.366a5.025 5.025 0 0 1-.12-1.194c-.009-.429.036-.85.137-1.266C.617 1.09 1.135.584 1.957.389c.191-.047.386-.079.581-.094Z" style="fill:url(#a);fill-rule:evenodd;stroke:none;stroke-width:.352771"/><path fill="#f9f9f9" d="M3.175 1.058a.07.07 0 0 0-.07.07v.073a1.623 1.623 0 0 0-1.553 1.621h1.552v1.976c0 .012.005.024.01.034a.563.563 0 0 0 .555.46.563.563 0 0 0 .564-.565v-.212a.07.07 0 1 0-.14 0v.212a.422.422 0 1 1-.848 0V2.822h1.553a1.623 1.623 0 0 0-1.553-1.621v-.072a.07.07 0 0 0-.07-.07z" opacity=".9" style="stroke-width:.264579;paint-order:stroke fill markers"/></svg>
